docs/assets/img/camera.svg

<?xml version="1.0" encoding="UTF-8"?>
<svg width="19px" height="15px" viewBox="0 0 19 15" version="1.1" xmlns="http://www.w3.org/2000/svg" xmlns:xlink="http://www.w3.org/1999/xlink">
    <title>camera</title>
    <g id="Welcome" stroke="none" stroke-width="1" fill="none" fill-rule="evenodd">
        <g id="lpw-featured-development-landing-page-2.0" transform="translate(-100.000000, -551.000000)" fill="#FFFFFF" fill-rule="nonzero">
            <g id="Main-12" transform="translate(30.000000, 276.000000)">
                <g id="camera" transform="translate(70.000000, 275.000000)">
                    <path d="M18.3591449,2.36746988 C17.9800475,1.96987952 17.4565321,1.73493976 16.8608076,1.73493976 L13.864133,1.73493976 L13.864133,1.69879518 C13.864133,1.24698795 13.6836105,0.813253012 13.3767221,0.524096386 C13.0698337,0.21686747 12.6546318,0.0361445783 12.2033254,0.0361445783 L6.78764846,0.0361445783 C6.31828979,0.0361445783 5.90308789,0.21686747 5.59619952,0.524096386 C5.28931116,0.831325301 5.1087886,1.24698795 5.1087886,1.69879518 L5.1087886,1.73493976 L2.13016627,1.73493976 C1.53444181,1.73493976 1.01092637,1.96987952 0.631828979,2.36746988 C0.252731591,2.74698795 2.84217094e-14,3.28915663 2.84217094e-14,3.86746988 L2.84217094e-14,12.8674699 C2.84217094e-14,13.4638554 0.234679335,13.9879518 0.631828979,14.3674699 C1.01092637,14.746988 1.55249406,15 2.13016627,15 L16.8608076,15 C17.4565321,15 17.9800475,14.7650602 18.3591449,14.3674699 C18.7382423,13.9879518 18.9909739,13.4457831 18.9909739,12.8674699 L18.9909739,3.86746988 C18.9909739,3.27108434 18.7562945,2.74698795 18.3591449,2.36746988 Z M18.0522565,12.8674699 L18.0342043,12.8674699 C18.0342043,13.1927711 17.9078385,13.4819277 17.6912114,13.6987952 C17.4745843,13.9156627 17.1857482,14.0421687 16.8608076,14.0421687 L2.13016627,14.0421687 C1.80522565,14.0421687 1.51638955,13.9156627 1.29976247,13.6987952 C1.08313539,13.4819277 0.956769596,13.1927711 0.956769596,12.8674699 L0.956769596,3.86746988 C0.956769596,3.54216867 1.08313539,3.25301205 1.29976247,3.03614458 C1.51638955,2.81927711 1.80522565,2.69277108 2.13016627,2.69277108 L5.61425178,2.69277108 C5.88503563,2.69277108 6.10166271,2.47590361 6.10166271,2.20481928 L6.10166271,1.68072289 C6.10166271,1.48192771 6.17387173,1.30120482 6.30023753,1.1746988 C6.42660333,1.04819277 6.60712589,0.975903614 6.80570071,0.975903614 L12.2033254,0.975903614 C12.4019002,0.975903614 12.5824228,1.04819277 12.7087886,1.1746988 C12.8351544,1.30120482 12.9073634,1.48192771 12.9073634,1.68072289 L12.9073634,2.20481928 C12.9073634,2.47590361 13.1239905,2.69277108 13.3947743,2.69277108 L16.8788599,2.69277108 C17.2038005,2.69277108 17.4926366,2.81927711 17.7092637,3.03614458 C17.9258907,3.25301205 18.0522565,3.54216867 18.0522565,3.86746988 L18.0522565,12.8674699 Z" id="Shape"></path>
                    <path d="M9.49548694,3.92168675 C8.26793349,3.92168675 7.14869359,4.42771084 6.3543943,5.22289157 C5.54204276,6.03614458 5.05463183,7.13855422 5.05463183,8.36746988 C5.05463183,9.59638554 5.56009501,10.7168675 6.3543943,11.5120482 C7.16674584,12.3253012 8.26793349,12.813253 9.49548694,12.813253 C10.7230404,12.813253 11.8422803,12.3072289 12.6365796,11.5120482 C13.4489311,10.6987952 13.936342,9.59638554 13.936342,8.36746988 C13.936342,7.13855422 13.4308789,6.01807229 12.6365796,5.22289157 C11.8422803,4.42771084 10.7230404,3.92168675 9.49548694,3.92168675 Z M11.9505938,10.8433735 C11.3187648,11.4578313 10.4522565,11.8554217 9.49548694,11.8554217 C8.53871734,11.8554217 7.67220903,11.4578313 7.04038005,10.8433735 C6.40855107,10.2108434 6.02945368,9.34337349 6.02945368,8.38554217 C6.02945368,7.42771084 6.42660333,6.56024096 7.04038005,5.92771084 C7.67220903,5.29518072 8.53871734,4.91566265 9.49548694,4.91566265 C10.4522565,4.91566265 11.3187648,5.31325301 11.9505938,5.92771084 C12.5824228,6.56024096 12.9615202,7.42771084 12.9615202,8.38554217 C12.9795724,9.34337349 12.5824228,10.2108434 11.9505938,10.8433735 Z" id="Shape"></path>
                    <ellipse id="Oval" cx="15.9220903" cy="4.78915663" rx="1" ry="1"></ellipse>
                </g>
            </g>
        </g>
    </g>
</svg>

<svg width="19" height="15" xmlns="http://www.w3.org/2000/svg"><g fill="#FFF"><path d="M18.36 2.367a2.04 2.04 0 00-1.5-.632h-2.996v-.036c0-.452-.18-.886-.487-1.175a1.65 1.65 0 00-1.174-.488H6.788A1.662 1.662 0 005.108 1.7v.036H2.13a2.04 2.04 0 00-1.498.632A2.15 2.15 0 000 3.867v9c0 .597.235 1.121.632 1.5.379.38.92.633 1.498.633h14.73a2.04 2.04 0 001.5-.633c.378-.379.631-.921.631-1.5v-9c0-.596-.235-1.12-.632-1.5zm-.308 10.5h-.018c0 .326-.126.615-.343.832a1.158 1.158 0 01-.83.343H2.13c-.326 0-.615-.126-.831-.343a1.16 1.16 0 01-.343-.832v-9c0-.325.126-.614.343-.83.216-.218.505-.344.83-.344h3.484a.486.486 0 00.488-.488V1.68a.71.71 0 01.198-.506.709.709 0 01.506-.2h5.397c.199 0 .38.073.506.2a.71.71 0 01.198.506v.524c0 .27.217.488.488.488h3.484c.325 0 .614.126.83.343.217.217.343.506.343.831v9z"/><path d="M9.495 3.922a4.446 4.446 0 00-3.14 1.3 4.413 4.413 0 00-1.3 3.145c0 1.23.505 2.35 1.3 3.145a4.403 4.403 0 003.14 1.301 4.446 4.446 0 003.142-1.301 4.413 4.413 0 001.3-3.145 4.458 4.458 0 00-1.3-3.144 4.446 4.446 0 00-3.142-1.301zm2.456 6.921a3.526 3.526 0 01-2.456 1.012 3.526 3.526 0 01-2.455-1.012 3.457 3.457 0 01-1.01-2.457c0-.958.397-1.826 1.01-2.458a3.45 3.45 0 012.455-1.012c.957 0 1.824.397 2.456 1.012.631.632 1.01 1.5 1.01 2.458a3.384 3.384 0 01-1.01 2.457z"/><circle cx="15.922" cy="4.789" r="1"/></g></svg>
